svgs/regular/spider-web.svg

<svg xmlns="http://www.w3.org/2000/svg" viewBox="0 0 576 512"><!-- Font Awesome Pro 6.0.0-alpha2 by @fontawesome - https://fontawesome.com License - https://fontawesome.com/license (Commercial License) --><path d="M569.344 239.504C510.351 177.255 466.731 100.507 443.108 17.508C439.484 5.008 426.86 -2.492 414.111 0.758C331.62 21.508 244.38 21.508 161.889 0.758C149.015 -2.367 136.516 5.008 132.892 17.508C109.269 100.507 65.649 177.255 6.656 239.504C-2.219 248.754 -2.219 263.254 6.656 272.504C65.649 334.753 109.269 411.502 132.892 494.5C136.516 507 149.015 514.375 161.889 511.25C244.38 490.5 331.62 490.5 414.111 511.25C416.111 511.75 418.111 512 419.986 512C430.485 512 440.108 505.125 443.108 494.5C466.731 411.502 510.351 334.753 569.344 272.504C578.219 263.254 578.219 248.754 569.344 239.504ZM500.602 232.004H454.607C426.86 200.13 405.737 162.506 392.739 121.756L415.236 82.632C436.234 136.381 464.981 186.755 500.602 232.004ZM246.629 232.004H182.511C194.76 214.255 205.384 195.505 214.258 175.755L246.629 232.004ZM254.129 148.756C276.626 151.006 299.374 151.006 321.871 148.756L288 207.755L254.129 148.756ZM246.629 280.004L214.383 336.253C205.384 316.628 194.76 297.753 182.511 280.004H246.629ZM288 304.253L321.871 363.252C310.623 362.127 299.374 361.502 288 361.502S265.377 362.127 254.129 363.252L288 304.253ZM329.371 280.004H393.489C381.24 297.753 370.616 316.628 361.617 336.253L329.371 280.004ZM329.371 232.004L361.742 175.755C370.616 195.505 381.24 214.255 393.489 232.004H329.371ZM374.616 56.882L352.743 94.882C310.123 104.631 265.877 104.631 223.257 94.882L201.384 56.882C258.753 65.757 317.247 65.757 374.616 56.882ZM160.764 82.632L183.261 121.756C170.263 162.506 149.14 200.13 121.393 232.004H75.398C111.019 186.755 139.766 136.381 160.764 82.632ZM75.398 280.004H121.393C149.14 311.878 170.263 349.503 183.261 390.252L160.764 429.501C139.766 375.627 111.019 325.253 75.398 280.004ZM201.384 455.126L223.257 417.126C265.877 407.377 310.123 407.377 352.743 417.126L374.616 455.126C345.869 450.751 316.997 447.751 288 447.751S230.131 450.751 201.384 455.126ZM415.236 429.501L392.739 390.252C405.737 349.503 426.86 311.878 454.607 280.004H500.602C464.981 325.253 436.234 375.627 415.236 429.501Z"/></svg>

<svg xmlns="http://www.w3.org/2000/svg" viewBox="0 0 576 512"><!-- Font Awesome Pro 5.15.1 by @fontawesome - https://fontawesome.com License - https://fontawesome.com/license (Commercial License) --><path d="M569.41 239.5c-59-62.2-102.69-138.98-126.32-222.03C439.56 5.02 426.9-2.47 414.15.75c-82.56 20.72-169.75 20.72-252.32 0-12.81-3.17-25.38 4.27-28.94 16.72-23.61 83.05-67.3 159.83-126.3 222.03-8.78 9.27-8.78 23.76 0 33.03 59 62.2 102.69 138.98 126.32 222.03 3.53 12.44 16.06 19.83 28.94 16.72 82.56-20.72 169.75-20.72 252.32 0 1.97.48 3.94.72 5.84.72 10.5 0 20.09-6.91 23.09-17.44 23.63-83.06 67.31-159.83 126.32-222.03 8.78-9.27 8.78-23.77-.01-33.03zm-68.84-7.48h-45.99c-27.73-31.88-48.83-69.55-61.87-110.25l22.49-39.2c20.99 53.84 49.78 104.23 85.37 149.45zm-254 0h-64.04a362.548 362.548 0 0 0 31.78-56.22l32.26 56.22zm7.54-83.27c22.54 2.27 45.25 2.27 67.79 0L288 207.81l-33.89-59.06zm-7.54 131.26l-32.25 56.2a362.814 362.814 0 0 0-31.8-56.2h64.05zM288 304.22l33.9 59.07c-11.27-1.13-22.58-1.83-33.9-1.83s-22.63.69-33.9 1.83l33.9-59.07zm41.43-24.21h64.05a365.399 365.399 0 0 0-31.8 56.2l-32.25-56.2zm0-47.99l32.26-56.22a363.01 363.01 0 0 0 31.78 56.22h-64.04zM374.6 56.9l-21.79 37.97a289.7 289.7 0 0 1-129.62 0L201.4 56.9a568.257 568.257 0 0 0 173.2 0zM160.81 82.57l22.49 39.2c-13.04 40.7-34.15 78.37-61.87 110.25h-46c35.59-45.22 64.38-95.61 85.38-149.45zM75.43 280.01h45.98c27.73 31.85 48.84 69.53 61.89 110.24l-22.49 39.2c-21-53.83-49.79-104.22-85.38-149.44zM201.4 455.12l21.79-37.97a289.7 289.7 0 0 1 129.62 0l21.79 37.97c-28.69-4.43-57.59-7.39-86.6-7.39s-57.91 2.97-86.6 7.39zm213.79-25.67l-22.49-39.2c13.05-40.72 34.15-78.39 61.89-110.24h45.98c-35.59 45.22-64.38 95.61-85.38 149.44z"/></svg>
